X:1
T:Title
%%score 1 2 3
L:1/8
M:6/4
K:C
V:1 treble nm="Part_1"
V:2 treble-8 nm="Part_2"
V:3 treble-8 nm="Part_3"
V:1
 D2 D2 D2 A4 A2 | B2 c4 d4 B2 | G2 A4 G4 F2 | G6 z2 z2 B2 | d4 d2 e2 d4 | c2 B4 A4 G2 | %6
 G2 F2 F2 G2 G2 G2 | A4 D2 G2 F4 | E6 z6 | D2 D2 D2 C2 C2 CC | D2 A3 G F2 E3 F | DFGA D2 z2 E2 F2 | %12
 G2 d4 G4 c2 | B2 A4 G4 F2 |[M:4/2] G16 |] %15
V:2
 d6 f6 | e6 d6 | c4 B4 A4 | G12 | g6- g4 f2 | e2 d4 c4 B2 | A6 G6 | d4 f2 e2 d4 | c12 | f6 e6 | %10
 d2 d2 d2 c2 c2 cc | d2 B4 A6 | G6 z2 E2 F2 | G2 c4 B2 A4 |[M:4/2] G16 |] %15
V:3
 a6 d6 | g4 g2 a2 f4 | e4 d2 d2 c4 | d4 e4 d4 | G6 z2 z2 d2 | A2 B2 G2 z A E2 G2 | d2 c4 d4 e2 | %7
 f2 d4 B2 c2 d2 | A6 z6 | D4 D2 A2 A4 | D6 A4 z2 | d2 d2 d2 c2 c2 cc | d6 e4 c2 | g2 f2 e2 d2 c4 | %14
[M:4/2] d16 |] %15

